X:1
T:Let the Song Go Round the Earth
T:Let the Song Go Round the Earth
T:Sarah Geraldine Stock
T:Sarah Geraldine Stock, 1898
T:Public Domain Courtesy of the Cyber Hymnal™
C:Sarah Geraldine Stock
Z:Public Domain
Z:Courtesy of the Cyber Hymnal™
%%score ( 1 2 ) ( 3 4 )
L:1/8
Q:1/4=115
M:4/4
K:C
V:1 treble 
V:2 treble 
V:3 bass 
V:4 bass 
V:1
 C2 [B,D]2 [CE]2 [EG]2 | [FA]2 [FB]2 [Ec]4 | [Ec]2 c2 [Ad]2 [Gd]2 | [Ec]8 | C2 [B,D]2 [CE]2 [EG]2 | %5
w: 1.~Let the song go|round the earth,|Je- sus Christ is|Lord!|Sound His prais- es,|
w: 2.~Let the song go|round the earth,|From the east- ern|sea,|Where the day- light|
w: 3.~Let the song go|round the earth,|Lands where Is- lam’s|sway|Dark- ly broods o’er|
w: 4.~Let the song go|round the earth,|Where the sum- mer|smiles;|Let the notes of|
w: 5.~Let the song go|round the earth,|Je- sus Christ is|king!|With the stor- y|
 [FA]2 [FB]2 [Ec]4 | [^FB]2 [FA]2 [Gd]2 [Ge]2 | d8 | [Ee]2 [Ee]2 [Ge]2 d2 | [Ac]2 [GB]2 [FA]4 x | %10
w: tell His worth,|Be His name a-|dored;|Ev- ery clime and|ev- ery tongue|
w: has its birth,|Glad, and bright, and|free;|Chi- na’s mil- lions|join the strains,|
w: home and hearth,|Cast their bonds a-|way;|Let His praise from|Af- ric’s shore|
w: ho- ly mirth|Break from dis- tant|isles;|In- land for- ests,|dark and dim,|
w: of His worth|Let the whole world|ring;|Him cre- a- tion|all a- dore|
 [FA]2 [DA]2 G2 c2 | [Ge]4 d4 | [Ec]8 |] %13
w: Join the grand, the|glor- ious|song!|
w: Waft them on to|In- dia’s|plains.|
w: Rise and swell her|wide lands|o’er.|
w: Ice bound coasts give|back the|hymn.|
w: Ev- er- more and|ev- er-|more.|
V:2
 C2 x6 | x8 | x2 (FG) x4 | x8 | C2 x6 | x8 | x8 | (G4 F4) | x6 (AB) | x9 | x4 G2 (EF) | %11
 x4 (G2 F2) | x8 |] %13
V:3
 [C,E,]2 [G,,G,]2 [C,G,]2 [C,C]2 | [F,C]2 G,2 [C,G,]4 | [A,,A,]2 [A,C]2 [F,C]2 [G,B,]2 | [C,C]8 | %4
 [C,E,]2 [G,,G,]2 [C,G,]2 [C,C]2 | [F,C]2 [D,D]2 [A,C]4 | [D,D]2 [C,D]2 [B,,D]2 [B,,C]2 | [G,B,]8 | %8
 [C,G,]2 [D,G,]2 [E,C]2 F2 | E3 (z D) [F,C]4 | [D,D]2 [F,B,]2 [E,C]2 [A,C]2 | [G,C]4 [G,B,]4 | %12
 [C,C]8 |] %13
V:4
 x8 | x2 G,2 x4 | x8 | x8 | x8 | x8 | x8 | x8 | x6 (F,G,) | A,2 E,2 x5 | x8 | x8 | x8 |] %13

